X: 34203
T: Reel Of Tulloch, The
R: strathspey
M: 4/4
K: Amajor
e2 Ac/d/ e>cA>a|e2 Ac/d/ d>B=G>f|e2 Ac/d/ e>Ac>A|BG G/G/G d>B =G:|
c>A c/d/e cAAB|c>A c/d/e d>BG>B|c>A c/d/e c>Ac>A|BG G/G/G d>B=GB|
c>A c/d/e c<AAB|c>A c/d/e d<B=GB|cA c/d/e c<Ac<A|BG c/d/e d<B=GB [DS]||

